assets/images/problems-svg.svg

<svg fill="none" height="344" viewBox="0 0 344 344" width="344" xmlns="http://www.w3.org/2000/svg" xmlns:xlink="http://www.w3.org/1999/xlink"><linearGradient id="a"><stop offset="0" stop-color="#e1e6f2"/><stop offset="1" stop-color="#e1e6f2" stop-opacity="0"/></linearGradient><linearGradient id="b" gradientUnits="userSpaceOnUse" x1="172" x2="172" xlink:href="#a" y1="0" y2="344"/><linearGradient id="c" gradientUnits="userSpaceOnUse" x1="139.862" x2="139.862" xlink:href="#a" y1="86.6333" y2="324.123"/><clipPath id="d"><path d="m0 0h344v344h-344z" transform="matrix(-1 0 0 1 344 0)"/></clipPath><g clip-path="url(#d)" opacity=".3"><path d="m22.7899 134.489 19.1216-3.359c2.4005-7.676 5.4787-15.122 9.198-22.253l-11.1397-15.876c-7.6957-10.9469-6.3969-25.8437 3.0772-35.2936l14.667-14.6671c9.4499-9.4741 24.3468-10.7728 35.2936-3.0772l15.8834 11.1397c7.13-3.7193 14.577-6.7974 22.252-9.1979l3.36-19.1216c2.312-13.17144 13.75-22.77925016 27.123-22.78328141h20.748c13.383-.01545309 24.835 9.60445141 27.13 22.78998141l3.359 19.1149c7.676 2.3998 15.123 5.4779 22.253 9.1979l15.876-11.1397c10.947-7.6956 25.844-6.3969 35.294 3.0772l14.674 14.6738c9.474 9.4499 10.773 24.3467 3.077 35.2936l-11.133 15.8763c3.719 7.13 6.797 14.577 9.198 22.253l19.115 3.359c13.183 2.298 22.798 13.749 22.783 27.13v20.748c-.001 13.377-9.613 24.82-22.79 27.13l-19.115 3.359c-2.4 7.676-5.478 15.123-9.198 22.253l11.14 15.876c7.696 10.947 6.397 25.844-3.077 35.294l-14.674 14.674c-9.45 9.474-24.347 10.773-35.294 3.077l-15.876-11.133c-7.13 3.72-14.577 6.798-22.253 9.198l-3.359 19.121c-2.3 13.181-13.751 22.793-27.13 22.777h-20.748c-13.381.015-24.832-9.6-27.13-22.783-.835-4.752 2.34-9.28 7.092-10.115 4.751-.835 9.279 2.34 10.115 7.091.409 2.335 1.628 4.451 3.443 5.976s4.11 2.362 6.48 2.362h20.748c2.371.001 4.667-.834 6.484-2.36 1.816-1.525 3.037-3.642 3.446-5.978l4.293-24.476c.285-1.635 1.03-3.154 2.147-4.381 1.118-1.227 2.561-2.11 4.162-2.546 9.931-2.657 19.472-6.601 28.38-11.731 1.444-.836 3.097-1.242 4.764-1.168s3.278.624 4.642 1.585l20.325 14.257c1.941 1.361 4.3 1.993 6.662 1.787 2.362-.207 4.575-1.239 6.251-2.916l14.674-14.674c1.677-1.676 2.709-3.889 2.916-6.251.206-2.362-.427-4.721-1.787-6.662l-14.264-20.318c-.961-1.364-1.511-2.975-1.585-4.642s.332-3.32 1.168-4.764c5.134-8.911 9.082-18.454 11.745-28.387.43-1.607 1.311-3.058 2.538-4.181 1.227-1.124 2.75-1.874 4.389-2.161l24.469-4.293c2.331-.409 4.443-1.624 5.968-3.434 1.524-1.809 2.363-4.097 2.37-6.463v-20.748c-.001-2.37-.837-4.665-2.362-6.48s-3.641-3.034-5.976-3.443l-24.476-4.294c-1.634-.286-3.153-1.033-4.379-2.151-1.225-1.118-2.107-2.563-2.541-4.164-2.661-9.933-6.607-19.476-11.738-28.387-.837-1.444-1.242-3.097-1.168-4.764s.624-3.278 1.584-4.642l14.258-20.3177c1.36-1.9414 1.993-4.3004 1.787-6.6623-.207-2.3618-1.239-4.5753-2.916-6.2511l-14.674-14.6738c-1.676-1.677-3.889-2.7095-6.251-2.9159-2.362-.2065-4.721.4263-6.662 1.7872l-20.318 14.2639c-1.364.9608-2.975 1.5106-4.642 1.5845-1.667.0738-3.32-.3315-4.764-1.168-8.911-5.1324-18.454-9.0784-28.387-11.7376-1.607-.4306-3.058-1.3113-4.181-2.5385-1.124-1.2272-1.874-2.7497-2.161-4.3886l-4.294-24.4764c-.408-2.3304-1.623-4.4428-3.433-5.9672-1.809-1.5244-4.097-2.3637-6.463-2.3707h-20.748c-2.372-.0009-4.668.8348-6.484 2.3599s-3.037 3.6419-3.446 5.978l-4.293 24.4764c-.285 1.6347-1.03 3.1543-2.147 4.3811-1.118 1.2267-2.561 2.1099-4.162 2.546-9.931 2.6613-19.471 6.6072-28.38 11.7376-1.444.8365-3.097 1.2418-4.764 1.168-1.667-.0739-3.278-.6237-4.643-1.5845l-20.3238-14.2572c-1.9414-1.3608-4.3004-1.9937-6.6622-1.7872-2.3619.2064-4.5753 1.2389-6.2512 2.9159l-14.6737 14.6738c-1.677 1.6759-2.7096 3.8893-2.916 6.2512-.2065 2.3618.4264 4.7208 1.7872 6.6622l14.2639 20.318c.9608 1.364 1.5107 2.975 1.5845 4.642s-.3315 3.32-1.1679 4.764c-5.13 8.909-9.0758 18.45-11.7377 28.38-.4317 1.606-1.3129 3.055-2.54 4.177-1.227 1.123-2.749 1.871-4.387 2.159l-24.4764 4.293c-2.3316.409-4.4449 1.625-5.9695 3.436-1.5245 1.811-2.363 4.1-2.3685 6.467v20.748c-.0008 2.372.8348 4.668 2.3599 6.484s3.642 3.037 5.9781 3.446c4.7515.835 7.9268 5.364 7.0916 10.115-.8351 4.752-5.3636 7.927-10.1151 7.092-13.18484-2.299-22.8020293-13.753-22.78323052-27.137v-20.748c-.00201416-13.379 9.61118052-24.826 22.78993052-27.137z" fill="url(#b)"/><path d="m24.814 263.059 55.8732-57.573c3.61-3.7 6.3749-8.139 8.1043-13.011 1.7294-4.871 2.3822-10.06 1.9133-15.208-4.0097-45.871 29.9242-86.307 75.7952-90.3167 4.871-.426 9.769-.4226 14.639.0101 3.816.3103 7.402 1.9511 10.132 4.6359 6.642 6.532 6.744 17.2067.229 23.8647l-24.074 24.544c-4.892 4.983-4.819 12.989.164 17.881l.004.004 18.638 18.282c4.986 4.888 12.989 4.809 17.879-.175l24.073-24.543c6.532-6.642 17.207-6.744 23.865-.229 2.741 2.677 4.453 6.233 4.837 10.045 4.953 45.778-28.142 86.904-73.921 91.857-4.863.526-9.764.624-14.645.29-5.146-.369-10.31.38-15.138 2.197-4.828 1.816-9.206 4.656-12.832 8.325l-55.8399 57.533c-3.36 3.462-8.8902 3.544-12.3524.184s-3.5448-8.89-.1847-12.352l55.873-57.566c5.394-5.479 11.91-9.725 19.101-12.444 7.191-2.72 14.886-3.85 22.555-3.312 36.313 2.489 67.768-24.931 70.256-61.244.229-3.344.203-6.701-.078-10.042l-23.086 23.516c-2.763 2.832-6.061 5.088-9.702 6.637-3.64 1.548-7.552 2.36-11.509 2.386h-.296c-7.881.024-15.453-3.064-21.07-8.593l-18.637-18.282c-11.873-11.646-12.056-30.711-.41-42.583l23.085-23.516c-36.32-2.372-67.687 25.148-70.06 61.468-.218 3.347-.182 6.705.111 10.047.687 7.648-.29 15.355-2.865 22.59s-6.6859 13.826-12.0509 19.321l-55.8395 57.539c-3.3601 3.463-8.8903 3.545-12.3524.185-3.4615-3.36-3.5442-8.89-.1842-12.352z" fill="url(#c)"/></g></svg>

<svg width="344" height="344" viewBox="0 0 344 344" fill="none" xmlns="http://www.w3.org/2000/svg">
  <g opacity="0.3" clip-path="url(#clip0_95_3436)">
    <path d="M22.7899 134.489L41.9115 131.13C44.312 123.454 47.3902 116.008 51.1095 108.877L39.9698 93.001C32.2741 82.0541 33.5729 67.1573 43.047 57.7074L57.714 43.0403C67.1639 33.5662 82.0608 32.2675 93.0076 39.9631L108.891 51.1028C116.021 47.3835 123.468 44.3054 131.143 41.9049L134.503 22.7833C136.815 9.61186 148.253 0.00404984 161.626 1.85909e-05H182.374C195.757 -0.0154345 207.209 9.60447 209.504 22.79L212.863 41.9049C220.539 44.3047 227.986 47.3828 235.116 51.1028L250.992 39.9631C261.939 32.2675 276.836 33.5662 286.286 43.0403L300.96 57.7141C310.434 67.164 311.733 82.0608 304.037 93.0077L292.904 108.884C296.623 116.014 299.701 123.461 302.102 131.137L321.217 134.496C334.4 136.794 344.015 148.245 344 161.626V182.374C343.999 195.751 334.387 207.194 321.21 209.504L302.095 212.863C299.695 220.539 296.617 227.986 292.897 235.116L304.037 250.992C311.733 261.939 310.434 276.836 300.96 286.286L286.286 300.96C276.836 310.434 261.939 311.733 250.992 304.037L235.116 292.904C227.986 296.624 220.539 299.702 212.863 302.102L209.504 321.223C207.204 334.404 195.753 344.016 182.374 344H161.626C148.245 344.015 136.794 334.4 134.496 321.217C133.661 316.465 136.836 311.937 141.588 311.102C146.339 310.267 150.867 313.442 151.703 318.193C152.112 320.528 153.331 322.644 155.146 324.169C156.961 325.694 159.256 326.531 161.626 326.531H182.374C184.745 326.532 187.041 325.697 188.858 324.171C190.674 322.646 191.895 320.529 192.304 318.193L196.597 293.717C196.882 292.082 197.627 290.563 198.744 289.336C199.862 288.109 201.305 287.226 202.906 286.79C212.837 284.133 222.378 280.189 231.286 275.059C232.73 274.223 234.383 273.817 236.05 273.891C237.717 273.965 239.328 274.515 240.692 275.476L261.017 289.733C262.958 291.094 265.317 291.726 267.679 291.52C270.041 291.313 272.254 290.281 273.93 288.604L288.604 273.93C290.281 272.254 291.313 270.041 291.52 267.679C291.726 265.317 291.093 262.958 289.733 261.017L275.469 240.699C274.508 239.335 273.958 237.724 273.884 236.057C273.81 234.39 274.216 232.737 275.052 231.293C280.186 222.382 284.134 212.839 286.797 202.906C287.227 201.299 288.108 199.848 289.335 198.725C290.562 197.601 292.085 196.851 293.724 196.564L318.193 192.271C320.524 191.862 322.636 190.647 324.161 188.837C325.685 187.028 326.524 184.74 326.531 182.374V161.626C326.53 159.256 325.694 156.961 324.169 155.146C322.644 153.331 320.528 152.112 318.193 151.703L293.717 147.409C292.083 147.123 290.564 146.376 289.338 145.258C288.113 144.14 287.231 142.695 286.797 141.094C284.136 131.161 280.19 121.618 275.059 112.707C274.222 111.263 273.817 109.61 273.891 107.943C273.965 106.276 274.515 104.665 275.475 103.301L289.733 82.9833C291.093 81.0419 291.726 78.6829 291.52 76.321C291.313 73.9592 290.281 71.7457 288.604 70.0699L273.93 55.3961C272.254 53.7191 270.041 52.6866 267.679 52.4802C265.317 52.2737 262.958 52.9065 261.017 54.2674L240.699 68.5313C239.335 69.4921 237.724 70.0419 236.057 70.1158C234.39 70.1896 232.737 69.7843 231.293 68.9478C222.382 63.8154 212.839 59.8694 202.906 57.2102C201.299 56.7796 199.848 55.8989 198.725 54.6717C197.601 53.4445 196.851 51.922 196.564 50.2831L192.27 25.8067C191.862 23.4763 190.647 21.3639 188.837 19.8395C187.028 18.3151 184.74 17.4758 182.374 17.4688H161.626C159.254 17.4679 156.958 18.3036 155.142 19.8287C153.326 21.3538 152.105 23.4706 151.696 25.8067L147.403 50.2831C147.118 51.9178 146.373 53.4374 145.256 54.6642C144.138 55.8909 142.695 56.7741 141.094 57.2102C131.163 59.8715 121.623 63.8174 112.714 68.9478C111.27 69.7843 109.617 70.1896 107.95 70.1158C106.283 70.0419 104.672 69.4921 103.307 68.5313L82.9832 54.2741C81.0418 52.9133 78.6828 52.2804 76.321 52.4869C73.9591 52.6933 71.7457 53.7258 70.0698 55.4028L55.3961 70.0766C53.7191 71.7525 52.6865 73.9659 52.4801 76.3278C52.2736 78.6896 52.9065 81.0486 54.2673 82.99L68.5312 103.308C69.492 104.672 70.0419 106.283 70.1157 107.95C70.1895 109.617 69.7842 111.27 68.9478 112.714C63.8178 121.623 59.872 131.164 57.2101 141.094C56.7784 142.7 55.8972 144.149 54.6701 145.271C53.4431 146.394 51.9211 147.142 50.2831 147.43L25.8067 151.723C23.4751 152.132 21.3618 153.348 19.8372 155.159C18.3127 156.97 17.4742 159.259 17.4687 161.626V182.374C17.4679 184.746 18.3035 187.042 19.8286 188.858C21.3537 190.674 23.4706 191.895 25.8067 192.304C30.5582 193.139 33.7335 197.668 32.8983 202.419C32.0632 207.171 27.5347 210.346 22.7832 209.511C9.59836 207.212 -0.0188293 195.758 -3.05176e-05 182.374V161.626C-0.00204468 148.247 9.61115 136.8 22.7899 134.489Z" fill="url(#paint0_linear_95_3436)" />
    <path d="M24.814 263.059L80.6872 205.486C84.2972 201.786 87.0621 197.347 88.7915 192.475C90.5209 187.604 91.1737 182.415 90.7048 177.267C86.6951 131.396 120.629 90.96 166.5 86.9503C171.371 86.5243 176.269 86.5277 181.139 86.9604C184.955 87.2707 188.541 88.9115 191.271 91.5963C197.913 98.1283 198.015 108.803 191.5 115.461L167.426 140.005C162.534 144.988 162.607 152.994 167.59 157.886L167.594 157.89L186.232 176.172C191.218 181.06 199.221 180.981 204.111 175.997L228.184 151.454C234.716 144.812 245.391 144.71 252.049 151.225C254.79 153.902 256.502 157.458 256.886 161.27C261.839 207.048 228.744 248.174 182.965 253.127C178.102 253.653 173.201 253.751 168.32 253.417C163.174 253.048 158.01 253.797 153.182 255.614C148.354 257.43 143.976 260.27 140.35 263.939L84.5101 321.472C81.1501 324.934 75.6199 325.016 72.1577 321.656C68.6955 318.296 68.6129 312.766 71.973 309.304L127.846 251.738C133.24 246.259 139.756 242.013 146.947 239.294C154.138 236.574 161.833 235.444 169.502 235.982C205.815 238.471 237.27 211.051 239.758 174.738C239.987 171.394 239.961 168.037 239.68 164.696L216.594 188.212C213.831 191.044 210.533 193.3 206.892 194.849C203.252 196.397 199.34 197.209 195.383 197.235H195.087C187.206 197.259 179.634 194.171 174.017 188.642L155.38 170.36C143.507 158.714 143.324 139.649 154.97 127.777L178.055 104.261C141.735 101.889 110.368 129.409 107.995 165.729C107.777 169.076 107.813 172.434 108.106 175.776C108.793 183.424 107.816 191.131 105.241 198.366C102.666 205.601 98.5551 212.192 93.1901 217.687L37.3506 275.226C33.9905 278.689 28.4603 278.771 24.9982 275.411C21.5367 272.051 21.454 266.521 24.814 263.059Z" fill="url(#paint1_linear_95_3436)" />
  </g>
  <defs>
    <linearGradient id="paint0_linear_95_3436" x1="172" y1="0" x2="172" y2="344" gradientUnits="userSpaceOnUse">
      <stop stop-color="#E1E6F2" />
      <stop offset="1" stop-color="#E1E6F2" stop-opacity="0" />
    </linearGradient>
    <linearGradient id="paint1_linear_95_3436" x1="139.862" y1="86.6333" x2="139.862" y2="324.123" gradientUnits="userSpaceOnUse">
      <stop stop-color="#E1E6F2" />
      <stop offset="1" stop-color="#E1E6F2" stop-opacity="0" />
    </linearGradient>
    <clipPath id="clip0_95_3436">
      <rect width="344" height="344" fill="white" transform="matrix(-1 0 0 1 344 0)" />
    </clipPath>
  </defs>
</svg>
